X: 5
T: Missa Cela sans plus / Agnus Dei
N: Derived from Mar1001e-Missa_Cela_sans_plus-Agnus.krn
C: Johannes Martini
%%abc-version 2.0
%%abcx-abcm2ps-target-version 5.9.1 (29 Sep 2008)
%%abc-creator hum2abc beta
%%abcx-conversion-date 2019/02/17 07:19:40
%%abc-edited-by Jesse Rodin
%%abc-edited-by Chris Gage 10-31-2013
%%abcx-initial-encoding-date 2015/02/24/
%%humdrum-veritas 3906058185
%%humdrum-veritas-data 2903322367
%%linebreak <none>
%%barnumbers 0
L: 1/4
M: 2/1
Q: 1/2=120
%%staves [1 2 3 4]
V: 1 clef=treble
V: 2 clef=treble-8
V: 3 clef=treble-8
V: 4 clef=bass
K: C
[V:1] z8 | 
[V:2] d8 | 
[V:3] z8 | 
[V:4] z8 | 
[V:1] z8 | 
[V:2] c4A2c2 | 
[V:3] z8 | 
[V:4] z8 | 
[V:1] z8 | 
[V:2] B2A4GF | 
[V:3] z8 | 
[V:4] D,8 | 
[V:1] z8 | 
[V:2] EFGAB2d2 | 
[V:3] z8 | 
[V:4] C,4B,,4 | 
[V:1] A8 | 
[V:2] c2f3ed2- | 
[V:3] z8 | 
[V:4] A,,2D,4F,2 | 
[V:1] G4F3G | 
[V:2] d2^c2d4 | 
[V:3] z8 | 
[V:4] E,4D,4 | 
[V:1] A_BA3GF2 | 
[V:2] D2F3ED2- | 
[V:3] A8 | 
[V:4] F,4D,4 | 
[V:1] E4D4 | 
[V:2] D2^C2D4 | 
[V:3] G4F4 | 
[V:4] z8 | 
[V:1] C3DE2F2- | 
[V:2] A8 | 
[V:3] E8 | 
[V:4] A,,3B,,C,2A,,2 | 
[V:1] FEE4D2 | 
[V:2] G4F4 | 
[V:3] z8 | 
[V:4] C,4D,4 | 
[V:1] E3DC2B,2- | 
[V:2] E4z2G2 | 
[V:3] G8 | 
[V:4] C,4E,4 | 
[V:1] B,A,A,4^G,2 | 
[V:2] A4B4 | 
[V:3] F4D4 | 
[V:4] D,2C,2B,,4 | 
[V:1] A,4z4 | 
[V:2] c2A3Bc2 | 
[V:3] E8 | 
[V:4] A,,2C,3D,E,2 | 
[V:1] z8 | 
[V:2] d2f3ed2- | 
[V:3] D8- | 
[V:4] F,3G,A,2_B,2- | 
[V:1] z4A4 | 
[V:2] d2cBA4 | 
[V:3] D8 | 
[V:4] B,2A,G,^F,3E, | 
[V:1] B6d2- | 
[V:2] G8 | 
[V:3] z8 | 
[V:4] G,4G,,3A,, | 
[V:1] d2cBc4 | 
[V:2] G4A4 | 
[V:3] z8 | 
[V:4] B,,2C,2A,,4 | 
[V:1] B2d3cB2- | 
[V:2] B8 | 
[V:3] G8 | 
[V:4] G,,8 | 
[V:1] BAGFE4 | 
[V:2] B4c4 | 
[V:3] G4A4 | 
[V:4] G,,4z4 | 
[V:1] D4z2G2- | 
[V:2] d6c2 | 
[V:3] B8 | 
[V:4] z8 | 
[V:1] G2B2A2c2 | 
[V:2] B2G2A4 | 
[V:3] B4c4 | 
[V:4] z8 | 
[V:1] B2AGF2A2- | 
[V:2] G2FED2F2- | 
[V:3] d6c2 | 
[V:4] z8 | 
[V:1] AGG4^F2 | 
[V:2] FGE2D4 | 
[V:3] B2G2A4 | 
[V:4] z8 | 
[V:1] G6FE | 
[V:2] d6c2 | 
[V:3] G8- | 
[V:4] z8 | 
[V:1] D4z4 | 
[V:2] B4A4 | 
[V:3] G4z4 | 
[V:4] G,6F,2 | 
[V:1] z8 | 
[V:2] G2c2B2A2- | 
[V:3] z8 | 
[V:4] E,4D,4 | 
[V:1] z8 | 
[V:2] A2G2A2G2- | 
[V:3] z8 | 
[V:4] C,8 | 
[V:1] z8 | 
[V:2] GFEDE4 | 
[V:3] z8 | 
[V:4] C,4C,4 | 
[V:1] D4F4 | 
[V:2] D2F3GA2 | 
[V:3] z8 | 
[V:4] D,6C,2 | 
[V:1] G4A4 | 
[V:2] D2G4^F2 | 
[V:3] d6c2 | 
[V:4] B,,4A,,4 | 
[V:1] D2G4C2 | 
[V:2] G4c4 | 
[V:3] B4A4 | 
[V:4] G,,4A,,4 | 
[V:1] D2E3FG2- | 
[V:2] z4c4 | 
[V:3] G8 | 
[V:4] B,,2C,3D,E,2- | 
[V:1] GFE2D2E2- | 
[V:2] B2c2d2c2- | 
[V:3] G4G4 | 
[V:4] E,D,C,2B,,2C,2 | 
[V:1] EDCB,A,2z2 | 
[V:2] cde2f2e2- | 
[V:3] A6G2 | 
[V:4] A,,4D,2E,2 | 
[V:1] A4G2c2 | 
[V:2] edd4c2 | 
[V:3] F4E4 | 
[V:4] F,2D,2G,4 | 
[V:1] B2A3GG2- | 
[V:2] d2f4d2- | 
[V:3] D8 | 
[V:4] F,2D,2F,2G,2 | 
[V:1] G2F2G2E2- | 
[V:2] d4B2c2- | 
[V:3] A4G4- | 
[V:4] D,4E,2C,2- | 
[V:1] E2DCDCB,A, | 
[V:2] cBAGA4 | 
[V:3] G2E2^F4 | 
[V:4] C,D,E,2D,4 | 
[V:1] B,4C2D2- | 
[V:2] G4g2fe | 
[V:3] G8 | 
[V:4] G,,4z2G,,2- | 
[V:1] D2G3FED | 
[V:2] d2cBA2B2- | 
[V:3] z8 | 
[V:4] G,,A,,B,,C,D,2G,2- | 
[V:1] E2D4^C2 | 
[V:2] BAG4FE | 
[V:3] G8 | 
[V:4] G,F,E,D,E,4 | 
[V:1] D4z4 | 
[V:2] (3:2:4F4G2A4B2 | 
[V:3] A4F4 | 
[V:4] (3:2:4D,4E,2F,2D,4 | 
[V:1] G4A4 | 
[V:2] c6A2- | 
[V:3] E8 | 
[V:4] C,4A,,4 | 
[V:1] F4E4- | 
[V:2] A2d2B2c2- | 
[V:3] z8 | 
[V:4] D,4E,4 | 
[V:1] E2C2D2CB, | 
[V:2] cde2d2e2 | 
[V:3] G8 | 
[V:4] C,4B,,4 | 
[V:1] A,2D3EF2 | 
[V:2] fedcd2A2 | 
[V:3] F4D4 | 
[V:4] z2D,4D,2 | 
[V:1] E2D3^CC2 | 
[V:2] c2G2A4 | 
[V:3] E8 | 
[V:4] C,2B,,2A,,4 | 
[V:1] D8 ||  
[V:2] F8 ||  
[V:3] D8 ||  
[V:4] A,8 ||  
[V:1]  [K:C] [K:clef=treble][M:2/1]z8 | 
[V:2]  [K:C] [K:clef=treble-8][M:2/1]z8 | 
[V:3]  [K:C] [K:clef=treble-8][M:2/1]z8 | 
[V:4]  [K:C] [K:clef=bass][M:2/1]D,8 | 
[V:1] z8 | 
[V:2] z8 | 
[V:3] z8 | 
[V:4] F,4E,4 | 
[V:1] z8 | 
[V:2] D8 | 
[V:3] z8 | 
[V:4] D,E,F,G,A,2F,2- | 
[V:1] z8 | 
[V:2] F4E4 | 
[V:3] z8 | 
[V:4] F,E,D,4^C,2 | 
[V:1] D8 | 
[V:2] D4G4 | 
[V:3] z8 | 
[V:4] D,4G,,4 | 
[V:1] F4E4 | 
[V:2] F2A4G2- | 
[V:3] z8 | 
[V:4] D,4C,4 | 
[V:1] D4G4 | 
[V:2] G2A2B2c2 | 
[V:3] z8 | 
[V:4] G,2F,2E,4 | 
[V:1] F2A4G2- | 
[V:2] d6B2 | 
[V:3] z8 | 
[V:4] D,6E,2- | 
[V:1] G2A2B3c | 
[V:2] c4d3c | 
[V:3] z8 | 
[V:4] E,2F,2D,4 | 
[V:1] d6B2 | 
[V:2] BAG3AB2 | 
[V:3] z8 | 
[V:4] G,,8 | 
[V:1] c4d4 | 
[V:2] A4D4 | 
[V:3] z8 | 
[V:4] A,,4B,,4 | 
[V:1] B2G3AB2 | 
[V:2] z4G4 | 
[V:3] z8 | 
[V:4] G,,2C,3B,,G,,2 | 
[V:1] A4D4 | 
[V:2] F2D2F2G2 | 
[V:3] z8 | 
[V:4] D,4_B,,4 | 
[V:1] z4G4 | 
[V:2] A4B2c2 | 
[V:3] z8 | 
[V:4] A,,4E,3C, | 
[V:1] F2D2F2G2 | 
[V:2] A2d4cB | 
[V:3] z8 | 
[V:4] D,6E,2 | 
[V:1] A4B2c2 | 
[V:2] A4G2A2 | 
[V:3] z8 | 
[V:4] F,4G,2F,2- | 
[V:1] A2d3cB2 | 
[V:2] c2B3AG2- | 
[V:3] z8 | 
[V:4] F,2G,6 | 
[V:1] A4G2A2 | 
[V:2] G2^F2G2c2- | 
[V:3] z8 | 
[V:4] D,4E,2F,2- | 
[V:1] c2B3AG2- | 
[V:2] c2d2e4 | 
[V:3] z8 | 
[V:4] F,2D,2C,4 | 
[V:1] G2F2G2C2- | 
[V:2] d4g3f | 
[V:3] z8 | 
[V:4] D,4E,3D, | 
[V:1] C2D2E4 | 
[V:2] edd4^c2 | 
[V:3] z8 | 
[V:4] E,2F,2G,2A,2 | 
[V:1] D4G3F | 
[V:2] d2F2G2A2- | 
[V:3] z8 | 
[V:4] D,4C,4 | 
[V:1] EDD4^C2 | 
[V:2] A2GFE4 | 
[V:3] z8 | 
[V:4] A,,2D,2A,,4 | 
[V:1] D8 | 
[V:2] D8- | 
[V:3] z8 | 
[V:4] z4D,4 | 
[V:1] z4D4 | 
[V:2] D8 | 
[V:3] z8 | 
[V:4] F,6E,2 | 
[V:1] F4E2D2- | 
[V:2] z8 | 
[V:3] z8 | 
[V:4] D,3C,A,,2B,,2- | 
[V:1] D2CB,A,4 | 
[V:2] d4f4 | 
[V:3] z8 | 
[V:4] B,,2C,2D,2F,2 | 
[V:1] G,4B,2A,2- | 
[V:2] e2d4cB | 
[V:3] z8 | 
[V:4] C,2G,4A,2- | 
[V:1] A,B,CDE2D2- | 
[V:2] A4G4 | 
[V:3] z8 | 
[V:4] A,2G,F,E,2G,2- | 
[V:1] D2F2E3F | 
[V:2] B2A3Bcd | 
[V:3] z8 | 
[V:4] G,F,D,2A,4 | 
[V:1] G2A2B3c | 
[V:2] e2d4g2- | 
[V:3] z8 | 
[V:4] G,2F,2G,4 | 
[V:1] A4G4 | 
[V:2] g2^f2g4 | 
[V:3] z8 | 
[V:4] D,4z2G,,2- | 
[V:1] z8 | 
[V:2] d8 | 
[V:3] z8 | 
[V:4] G,,A,,B,,4D,2- | 
[V:1] z8 | 
[V:2] e4d4 | 
[V:3] z8 | 
[V:4] D,2^C,2D,4 | 
[V:1] z8 | 
[V:2] B3cd2e2- | 
[V:3] z8 | 
[V:4] G,8 | 
[V:1] z8 | 
[V:2] e2dcB4 | 
[V:3] z8 | 
[V:4] A,4G,4 | 
[V:1] z8 | 
[V:2] G3AB2c2 | 
[V:3] z8 | 
[V:4] E,3F,G,2A,2- | 
[V:1] z4E4 | 
[V:2] A2d4^c2 | 
[V:3] z8 | 
[V:4] A,2G,F,E,4 | 
[V:1] F6E2 | 
[V:2] d8 | 
[V:3] z8 | 
[V:4] D,3E,F,2G,2- | 
[V:1] D2CB,A,4 | 
[V:2] z4e4 | 
[V:3] z8 | 
[V:4] G,F,A,3G,F,E, | 
[V:1] z2D4E2 | 
[V:2] f6e2 | 
[V:3] z8 | 
[V:4] D,6C,2 | 
[V:1] F2G2A3B | 
[V:2] d2cBA4 | 
[V:3] z8 | 
[V:4] D,2E,2F,2G,2 | 
[V:1] c2d4cB | 
[V:2] z2D4E2 | 
[V:3] z8 | 
[V:4] A,3B,A,4 | 
[V:1] A6GF | 
[V:2] F3GA2B2 | 
[V:3] z8 | 
[V:4] z2D,2F,2G,2 | 
[V:1] E2F4ED | 
[V:2] c2d4cB | 
[V:3] z8 | 
[V:4] A,2D,4E,2 | 
[V:1] C3A,C2D2 | 
[V:2] A2GFE2F2- | 
[V:3] z8 | 
[V:4] F,4G,2A,2- | 
[V:1] F2G2E2F2- | 
[V:2] F2EDC2D2 | 
[V:3] z8 | 
[V:4] A,2G,3F,D,2- | 
[V:1] FED4^C2 | 
[V:2] F2G2E4 | 
[V:3] z8 | 
[V:4] D,2G,,2A,,4 | 
[V:1] D8 ||  
[V:2] D8 ||  
[V:3] z8 ||  
[V:4] A,8 ||  



